i-home/img/icq/telefon.svg

<svg width="17" height="17" viewBox="0 0 17 17" fill="none" xmlns="http://www.w3.org/2000/svg">
<path d="M15.9 11.4999C15.9 11.4999 15.1 10.7999 14.6 10.4999C14.2 10.1999 13.6 9.79993 13.2 9.59993C12.6 9.19993 11.9 9.49993 11.7 9.79993L11.2 10.4999C10.9 10.8999 10.5 10.7999 10.4 10.7999C9.60001 10.5999 8.70001 9.99993 7.90001 9.19993C7.00001 8.29993 6.40001 7.49993 6.30001 6.49993V6.39993C6.20001 5.99993 6.30001 5.79993 6.50001 5.59993C6.90001 5.29993 7.50001 4.79993 7.60001 4.39993C7.90001 3.69993 6.70001 2.29993 6.50001 1.99993C6.50001 1.99993 5.70001 0.899934 5.40001 0.699934C5.00001 0.499934 4.50001 0.299934 4.00001 0.699934C2.50001 1.69993 2.00001 2.29993 2.20001 3.09993L2.30001 3.39993C3.00001 5.69993 4.50001 8.19993 6.60001 10.3999C8.70001 12.5999 11 13.8999 13.2 14.7999C13.8 14.9999 14.4 14.7999 15 14.2999C15.5 13.8999 15.9 13.3999 16.1 12.8999C16.4 12.2999 16.3 11.7999 15.9 11.4999Z" fill="#2765AF"/>
<path d="M8.9 16.6C8.8 16.6 8.8 16.6 8.7 16.6C7.2 16.6 5.8 16.3 4.5 15.5C2.7 14.5 1.50001 13 0.800005 11.1C0.100005 9.10002 0.200005 7.00002 1.20001 5.00002C1.20001 5.00002 1.20001 5.00002 1.20001 4.90002C1.30001 5.10002 1.30001 5.30002 1.40001 5.50002C1.50001 5.70002 1.60001 6.00002 1.70001 6.20002V6.30002C1.30001 7.40002 1.30001 8.60002 1.50001 9.70002C1.90001 11.8 3 13.3 4.7 14.5C5.7 15.2 6.8 15.5 8.1 15.6C8.9 15.7 9.7 15.6 10.5 15.3H10.6C11 15.5 11.4 15.7 11.9 15.8C11.8 15.9 11.7 15.9 11.5 16C11 16.2 10.5 16.3 10 16.4C10 16.4 10 16.4 9.9 16.4C9.6 16.6 9.2 16.6 8.9 16.6Z" fill="#2765AF"/>
<path d="M16.6 7.89999C16.6 7.89999 16.6 7.99999 16.6 7.89999C16.6 8.89999 16.6 9.79999 16.3 10.6C16.3 10.6 16.3 10.6 16.2 10.6C16 10.3 15.8 10.1 15.5 9.89999C15.4 9.89999 15.4 9.79999 15.4 9.69999C15.6 8.79999 15.6 7.99999 15.4 7.09999C15.1 5.59999 14.4 4.29999 13.3 3.19999C12.1 1.99999 10.6 1.39999 9.00001 1.29999C8.50001 1.29999 8.00001 1.29999 7.50001 1.29999C7.40001 1.29999 7.40001 1.29999 7.40001 1.19999C7.20001 1.09999 7.10001 0.899995 6.90001 0.599995V0.499995C8.30001 0.199995 9.60001 0.299995 11 0.699995C13.6 1.59999 15.3 3.29999 16.3 5.89999C16.5 6.49999 16.6 7.09999 16.7 7.69999C16.6 7.79999 16.6 7.79999 16.6 7.89999Z" fill="#2765AF"/>
</svg>

<?xml version="1.0" encoding="utf-8"?>
<!-- Generator: Adobe Illustrator 21.0.0, SVG Export Plug-In . SVG Version: 6.00 Build 0)  -->
<svg version="1.1" id="Слой_1" xmlns="http://www.w3.org/2000/svg" xmlns:xlink="http://www.w3.org/1999/xlink" x="0px" y="0px"
	 viewBox="0 0 17 17" style="enable-background:new 0 0 17 17;" xml:space="preserve">
<style type="text/css">
	.st0{fill:#2765AF;}
</style>
<g>
	<path class="st0" d="M15.9,11.5c0,0-0.8-0.7-1.3-1c-0.4-0.3-1-0.7-1.4-0.9c-0.6-0.4-1.3-0.1-1.5,0.2l-0.5,0.7
		c-0.3,0.4-0.7,0.3-0.8,0.3C9.6,10.6,8.7,10,7.9,9.2C7,8.3,6.4,7.5,6.3,6.5l0-0.1c-0.1-0.4,0-0.6,0.2-0.8l0,0c0.4-0.3,1-0.8,1.1-1.2
		c0.3-0.7-0.9-2.1-1.1-2.4c0,0-0.8-1.1-1.1-1.3C5,0.5,4.5,0.3,4,0.7l0,0c-1.5,1-2,1.6-1.8,2.4l0.1,0.3c0.7,2.3,2.2,4.8,4.3,7
		c2.1,2.2,4.4,3.5,6.6,4.4c0.6,0.2,1.2,0,1.8-0.5l0,0c0.5-0.4,0.9-0.9,1.1-1.4l0,0C16.4,12.3,16.3,11.8,15.9,11.5"/>
	<path class="st0" d="M8.9,16.6c-0.1,0-0.1,0-0.2,0c-1.5,0-2.9-0.3-4.2-1.1c-1.8-1-3-2.5-3.7-4.4C0.1,9.1,0.2,7,1.2,5c0,0,0,0,0-0.1
		c0.1,0.2,0.1,0.4,0.2,0.6C1.5,5.7,1.6,6,1.7,6.2c0,0,0,0.1,0,0.1C1.3,7.4,1.3,8.6,1.5,9.7c0.4,2.1,1.5,3.6,3.2,4.8
		c1,0.7,2.1,1,3.4,1.1c0.8,0.1,1.6,0,2.4-0.3c0,0,0.1,0,0.1,0c0.4,0.2,0.8,0.4,1.3,0.5c-0.1,0.1-0.2,0.1-0.4,0.2
		c-0.5,0.2-1,0.3-1.5,0.4c0,0,0,0-0.1,0C9.6,16.6,9.2,16.6,8.9,16.6z"/>
	<path class="st0" d="M16.6,7.9C16.6,7.9,16.6,8,16.6,7.9c0,1,0,1.9-0.3,2.7c0,0,0,0,0,0c0,0,0,0-0.1,0c-0.2-0.3-0.4-0.5-0.7-0.7
		c-0.1,0-0.1-0.1-0.1-0.2c0.2-0.9,0.2-1.7,0-2.6c-0.3-1.5-1-2.8-2.1-3.9c-1.2-1.2-2.7-1.8-4.3-1.9c-0.5,0-1,0-1.5,0
		c-0.1,0-0.1,0-0.1-0.1C7.2,1.1,7.1,0.9,6.9,0.6c0,0,0-0.1,0-0.1c1.4-0.3,2.7-0.2,4.1,0.2c2.6,0.9,4.3,2.6,5.3,5.2
		c0.2,0.6,0.3,1.2,0.4,1.8C16.6,7.8,16.6,7.8,16.6,7.9C16.6,7.9,16.6,7.9,16.6,7.9z"/>
</g>
</svg>
